packages/foundations/assets/icons/functional/images/transportation/scooter_24_inverted.svg

<svg width="24" height="24" viewBox="0 0 24 24" fill="none" xmlns="http://www.w3.org/2000/svg">
<g clip-path="url(#clip0_2214_6756)">
<path fill-rule="evenodd" clip-rule="evenodd" d="M16.6721 5.16132C17.8321 5.16132 18.7705 6.08347 18.85 7.23723L18.8554 9.9887C18.8554 10.1904 18.7552 10.4273 18.6392 10.5551C18.5619 10.6403 17.0725 12.307 14.1711 15.5551C14.0368 15.7055 13.8221 15.8387 13.5373 15.8387C13.3475 15.8387 12.1181 15.8387 9.84915 15.8387C9.92389 17.5447 8.57406 18.8387 6.99995 18.8387C5.48206 18.8387 4.0951 17.6029 4.14915 15.8387H3.00015C2.56682 15.8387 2.20922 15.5144 2.15677 15.0953L2.15015 13.359C2.15015 11.7728 3.23102 10.5551 4.81972 10.5182L9.15415 10.5133L8.69295 8.9147L6.00015 8.91562C5.51476 8.91562 5.15015 8.49895 5.15015 8.06562C5.15015 7.63229 5.49279 7.21562 6.00015 7.21562H8.83748C9.47006 7.21562 10.0262 7.61302 10.2494 8.19571L11.9719 14.1387H13.1559L17.1549 9.6637L17.1554 7.39593C17.1554 7.12758 16.9783 6.91389 16.7569 6.86971L14.6721 6.86132C14.2026 6.86132 13.8221 6.48076 13.8221 6.01132C13.8221 5.57798 14.1711 5.16132 14.6721 5.16132H16.6721ZM18.9999 13.1387C20.5741 13.1387 21.8499 14.4146 21.8499 15.9887C21.8499 17.5628 20.5741 18.8387 18.9999 18.8387C17.4258 18.8387 16.1499 17.5628 16.1499 15.9887C16.1499 14.4146 17.4258 13.1387 18.9999 13.1387ZM5.84915 15.8302C5.81125 16.6247 6.32643 17.1387 6.99995 17.1387C7.67347 17.1387 8.19927 16.6247 8.14995 15.8302H5.84915ZM18.9999 14.8387C18.3647 14.8387 17.8499 15.3535 17.8499 15.9887C17.8499 16.6239 18.3647 17.1387 18.9999 17.1387C19.6352 17.1387 20.1499 16.6239 20.1499 15.9887C20.1499 15.3535 19.6352 14.8387 18.9999 14.8387Z" fill="#1A1C1F"/>
</g>
<defs>
<clipPath id="clip0_2214_6756">
<rect width="24" height="24" fill="white"/>
</clipPath>
</defs>
</svg>

<svg xmlns="http://www.w3.org/2000/svg" width="24" height="24" fill="none"><g clip-path="url(#a)"><path fill="#1A1C1F" fill-rule="evenodd" d="M16.672 5.161c1.16 0 2.098.922 2.178 2.076l.005 2.752c0 .201-.1.438-.216.566l-4.468 5a.84.84 0 0 1-.634.284H9.85a2.85 2.85 0 0 1-2.849 3 2.864 2.864 0 0 1-2.85-3H3a.85.85 0 0 1-.843-.744L2.15 13.36c0-1.586 1.081-2.804 2.67-2.84l4.334-.006-.461-1.598H6a.863.863 0 0 1-.85-.85c0-.433.343-.85.85-.85h2.837c.633 0 1.19.398 1.412.98l1.723 5.944h1.184l3.999-4.475V7.396c0-.268-.177-.482-.398-.526l-2.085-.009a.85.85 0 1 1 0-1.7zM19 13.14a2.85 2.85 0 1 1 0 5.7 2.85 2.85 0 0 1 0-5.7M5.85 15.83c-.039.795.476 1.309 1.15 1.309s1.2-.514 1.15-1.309zM19 14.84a1.15 1.15 0 1 0 0 2.3 1.15 1.15 0 0 0 0-2.3" clip-rule="evenodd"/></g><defs><clipPath id="a"><path fill="#fff" d="M0 0h24v24H0z"/></clipPath></defs></svg>
